packages/tokens/icons/relevance/size16Px.svg

<svg viewBox="0 0 16 16" fill="none" xmlns="http://www.w3.org/2000/svg" width="1em" height="1em"><circle cx="8" cy="8" r="0.5" stroke="currentColor"/><path d="M12 8C12 10.2091 10.2091 12 8 12C5.79086 12 4 10.2091 4 8C4 5.79086 5.79086 4 8 4" stroke="currentColor" stroke-linecap="round"/><path d="M9.85714 1.76917C9.2687 1.59404 8.64533 1.5 8 1.5C4.41015 1.5 1.5 4.41015 1.5 8C1.5 11.5899 4.41015 14.5 8 14.5C11.5899 14.5 14.5 11.5899 14.5 8C14.5 7.00309 14.2756 6.05859 13.8745 5.21429" stroke="currentColor" stroke-linecap="round"/><path d="M8.00001 7.79298L11 4.79295" stroke="currentColor" stroke-linecap="round"/><path d="M13.0208 3.05051C12.7824 3.02765 12.5937 2.83893 12.5708 2.60052L12.4864 1.72068C12.4863 1.7208 12.4862 1.72093 12.4861 1.72105L13.0208 3.05051ZM13.0208 3.05051L13.9006 3.13487C13.9005 3.135 13.9004 3.13513 13.9003 3.13525L13.9002 3.13526M13.0208 3.05051L13.9002 3.13526M13.9002 3.13526L12.0066 5.02891C12.0014 5.03418 11.996 5.03677 11.9918 5.03788C11.989 5.03862 11.9874 5.03856 11.9869 5.03853C11.9783 5.03603 11.9668 5.03211 11.9382 5.02183L11.9339 5.0203C11.9095 5.0115 11.8698 4.9972 11.8271 4.98485L10.9037 4.71764L10.6365 3.79424C10.6246 3.75328 10.6101 3.71317 10.6021 3.69113C10.6017 3.68994 10.6013 3.6888 10.6009 3.68772C10.6034 3.68267 10.6064 3.67671 10.6102 3.6698C10.6538 3.58965 10.7571 3.45005 10.9835 3.22367C10.9835 3.22367 10.9835 3.22366 10.9835 3.22366M13.9002 3.13526L10.9835 3.22366M10.9835 3.22366L12.4861 1.72105L10.9835 3.22366Z" stroke="currentColor" stroke-linejoin="round"/></svg>

<svg xmlns="http://www.w3.org/2000/svg" fill="none" viewBox="0 0 16 16" width="1em" height="1em"><circle cx="8" cy="8" r=".5" stroke="currentColor"/><path stroke="currentColor" stroke-linecap="round" d="M12 8a4 4 0 1 1-4-4"/><path stroke="currentColor" stroke-linecap="round" d="M9.857 1.77a6.5 6.5 0 1 0 4.017 3.445M8 7.793l3-3"/><path stroke="currentColor" stroke-linejoin="round" d="M13.02 3.05a.5.5 0 0 1-.45-.45l-.084-.88v.001l.535 1.33Zm0 0 .88.085m-.88-.084.88.084m0 0L12.007 5.03a.033.033 0 0 1-.015.009h-.005a.915.915 0 0 1-.049-.016l-.004-.002a1.736 1.736 0 0 0-.107-.035l-.923-.267-.268-.924a1.691 1.691 0 0 0-.035-.106.454.454 0 0 1 .01-.018c.043-.08.146-.22.372-.446m2.917-.089-2.917.089m0 0 1.503-1.503-1.503 1.503Z"/></svg>
